packages/core/src/svgs/tokens/mono/SOON.svg

<svg width="24" height="24" viewBox="0 0 24 24" fill="none" xmlns="http://www.w3.org/2000/svg">
<path d="M18.438 2.18181C17.3194 1.81308 15.9194 1.99432 14.1008 2.82554L14.0694 2.83803L14.0445 2.85679L13.9195 2.93179C13.8796 2.94969 13.8376 2.96229 13.7945 2.96928C13.6382 2.99429 13.3695 3.00679 12.8133 3.00679C12.2508 3.00679 10.5321 3.03178 8.81342 3.55676C7.14472 4.06925 5.38228 5.08796 4.7948 7.10039L4.7198 7.14413C4.38857 7.33163 4.11358 7.49412 3.90733 7.66912C3.63235 7.91911 3.48235 8.18784 3.38235 8.59409C3.34486 8.73158 3.31985 8.92532 3.40111 9.10653C3.5136 9.33154 3.73234 9.40037 3.90733 9.40037C4.06357 9.40037 4.23233 9.35035 4.38857 9.28779C4.53857 9.22538 4.71356 9.13788 4.90105 9.03157C5.81862 8.80897 6.75301 8.66264 7.6947 8.59409C8.35718 8.55658 8.88216 8.59409 9.26964 8.70033C9.51215 9.65514 9.95066 10.5489 10.5572 11.3253C10.7883 11.5939 11.0696 11.844 11.3945 11.9378C11.482 11.9627 11.582 11.9815 11.6695 11.9877C11.7508 11.9877 11.8757 11.9877 11.9946 11.919C12.05 11.8863 12.0984 11.843 12.1371 11.7915C12.1757 11.74 12.2037 11.6814 12.2196 11.619C12.2445 11.5252 12.2445 11.4315 12.2383 11.3628C12.232 11.2565 12.2071 11.1252 12.1758 10.9877L12.1633 10.8878C12.1321 10.7128 12.1007 10.5127 12.0821 10.2691C12.0633 10.0003 12.0633 9.47533 12.0758 8.69408C15.9069 9.33154 18.6881 11.2627 20.4567 14.5001C20.4818 14.5376 20.5442 14.6251 20.6692 14.6751C20.813 14.7251 20.9379 14.6751 21.0068 14.6314C21.0692 14.5876 21.1067 14.5376 21.1255 14.5127C21.1421 14.4889 21.1567 14.4638 21.1692 14.4376C21.2004 14.3626 21.2318 14.2626 21.2504 14.1627C21.2942 13.9563 21.3317 13.6501 21.3568 13.2814C21.4005 12.5314 21.3754 11.4878 21.1443 10.344V10.3252L21.1317 10.3003C20.7882 9.17682 20.2829 8.10947 19.6318 7.13164C18.9087 6.17464 18.0689 5.31173 17.1318 4.56298L16.9068 4.36923L17.0569 4.20049C17.1756 4.07549 17.3068 3.95675 17.4318 3.83801L17.6193 3.66301C17.7757 3.56302 17.8944 3.46926 17.9944 3.38802L18.0443 3.34428C18.1506 3.25678 18.2693 3.16928 18.4818 3.06927C18.5318 3.04428 18.6006 3.00678 18.6567 2.95678C18.7046 2.91784 18.7437 2.86939 18.7717 2.81451C18.7995 2.75964 18.8158 2.69954 18.8193 2.63804C18.8215 2.56953 18.8074 2.50148 18.7781 2.43951C18.7486 2.37757 18.705 2.32349 18.6506 2.2818C18.5863 2.23454 18.5144 2.19861 18.438 2.17556V2.18181Z" fill="white"/>
<path d="M3.6442 10.9942C3.66078 10.8756 3.62959 10.7554 3.55751 10.6599C3.48542 10.5644 3.37836 10.5014 3.25984 10.4848C3.14133 10.4683 3.02108 10.4994 2.92556 10.5716C2.83003 10.6436 2.76706 10.7506 2.75048 10.8692C2.68799 11.3067 2.62549 12.0316 2.62549 12.5004C2.62549 17.8752 6.78159 22.0001 12.0814 22.0001C15.8438 22.0001 19.0312 19.5877 20.6061 16.4502C20.6327 16.3974 20.6483 16.3398 20.6523 16.2809C20.6563 16.222 20.6484 16.1628 20.6292 16.1069C20.6099 16.0509 20.5797 15.9994 20.5404 15.9554C20.501 15.9113 20.4533 15.8756 20.3999 15.8502C20.347 15.8234 20.2892 15.8072 20.2302 15.8028C20.171 15.7983 20.1115 15.8056 20.0552 15.8241C19.9987 15.8427 19.9467 15.8723 19.9018 15.9111C19.8569 15.9498 19.8201 15.9972 19.7936 16.0503C18.3499 18.9438 15.4438 21.1063 12.0814 21.1063C10.9498 21.1199 9.82708 20.9061 8.77958 20.4778C7.73212 20.0495 6.78127 19.4153 5.98342 18.6128C5.18555 17.8103 4.55688 16.8557 4.13468 15.8058C3.71246 14.7558 3.5053 13.6319 3.52545 12.5004C3.52545 12.0879 3.58795 11.4067 3.6442 10.9942Z" fill="white"/>
</svg>

<svg xmlns="http://www.w3.org/2000/svg" width="24" height="24" fill="none" viewBox="0 0 24 24">
    <path fill="#fff" d="M18.438 2.182c-1.119-.369-2.519-.188-4.337.644l-.032.012-.025.019-.125.075a.5.5 0 0 1-.125.037c-.156.025-.425.038-.98.038-.563 0-2.282.025-4 .55-1.67.512-3.432 1.531-4.02 3.543l-.074.044c-.331.188-.606.35-.813.525-.275.25-.425.519-.525.925a.77.77 0 0 0 .02.513.55.55 0 0 0 .505.293c.157 0 .325-.05.482-.112.15-.063.325-.15.512-.256a17 17 0 0 1 2.794-.438q.993-.054 1.575.106a7.1 7.1 0 0 0 1.287 2.625c.231.269.513.519.838.613.087.025.187.043.274.05.082 0 .207 0 .326-.069a.5.5 0 0 0 .225-.3.8.8 0 0 0 .018-.256 2.5 2.5 0 0 0-.062-.375l-.013-.1a6 6 0 0 1-.08-.619q-.028-.403-.007-1.575c3.83.638 6.612 2.569 8.38 5.806a.46.46 0 0 0 .213.175.39.39 0 0 0 .338-.044.5.5 0 0 0 .118-.118l.044-.075a1.4 1.4 0 0 0 .081-.275c.044-.207.082-.513.107-.882.044-.75.018-1.793-.213-2.937v-.019l-.012-.025a12.1 12.1 0 0 0-1.5-3.168 14.4 14.4 0 0 0-2.5-2.569l-.225-.194.15-.169c.119-.125.25-.243.375-.362l.187-.175c.157-.1.275-.194.375-.275l.05-.044c.107-.087.225-.175.438-.275a.8.8 0 0 0 .175-.112.44.44 0 0 0 .162-.319.43.43 0 0 0-.168-.356.7.7 0 0 0-.213-.106zM3.644 10.994a.451.451 0 1 0-.894-.125 14 14 0 0 0-.125 1.631c0 5.375 4.157 9.5 9.456 9.5 3.763 0 6.95-2.412 8.525-5.55a.443.443 0 0 0-.206-.6.45.45 0 0 0-.606.2c-1.444 2.894-4.35 5.056-7.713 5.056A8.456 8.456 0 0 1 3.525 12.5c0-.412.063-1.093.12-1.506"/>
</svg>
